X: 305591
M: 2/4
L: 1/16
K: G
|:\
|: g2 |\
dgBg dgBg | dgba gfed | eaca eaca | c2ag fedc |\
dgBg dgBg | dgba gfed | eaca eaca | bagf g4 :|


